svgs/duotone/folder-arrow-down.svg

<svg xmlns="http://www.w3.org/2000/svg" viewBox="0 0 512 512"><!--! Font Awesome Pro 6.3.0 by @fontawesome - https://fontawesome.com License - https://fontawesome.com/license (Commercial License) Copyright 2023 Fonticons, Inc. --><defs><style>.fa-secondary{opacity:.4}</style></defs><path class="fa-primary" d="M159 271C163.7 266.3 169.8 264 176 264s12.28 2.344 16.97 7.031L232 310.1V200C232 186.8 242.8 176 256 176s24 10.75 24 24v110.1l39.03-39.03c9.375-9.375 24.56-9.375 33.94 0s9.375 24.56 0 33.94l-80 80c-9.375 9.375-24.56 9.375-33.94 0l-80-80C149.7 295.6 149.7 280.4 159 271z"/><path class="fa-secondary" d="M464 96h-192l-64-64h-160C21.5 32 0 53.5 0 80v352C0 458.5 21.5 480 48 480h416c26.5 0 48-21.5 48-48v-288C512 117.5 490.5 96 464 96zM159 271C163.7 266.3 169.8 264 176 264s12.28 2.344 16.97 7.031L232 310.1V200C232 186.8 242.8 176 256 176s24 10.75 24 24v110.1l39.03-39.03c9.375-9.375 24.56-9.375 33.94 0s9.375 24.56 0 33.94l-80 80c-9.375 9.375-24.56 9.375-33.94 0l-80-80C149.7 295.6 149.7 280.4 159 271z"/></svg>

<svg xmlns="http://www.w3.org/2000/svg" viewBox="0 0 512 512"><!-- Font Awesome Pro 6.0.0-alpha2 by @fontawesome - https://fontawesome.com License - https://fontawesome.com/license (Commercial License) --><defs><style>.fa-secondary{opacity:.4}</style></defs><path d="M464 96H272L208 32H48C21.5 32 0 53.5 0 80V432C0 458.5 21.5 480 48 480H464C490.5 480 512 458.5 512 432V144C512 117.5 490.5 96 464 96ZM159.031 271.031C163.719 266.344 169.844 264 176 264S188.281 266.344 192.969 271.031L232 310.062V200C232 186.75 242.75 176 256 176S280 186.75 280 200V310.062L319.031 271.031C328.406 261.656 343.594 261.656 352.969 271.031S362.344 295.594 352.969 304.969L272.969 384.969C263.594 394.344 248.406 394.344 239.031 384.969L159.031 304.969C149.656 295.594 149.656 280.406 159.031 271.031Z" class="fa-secondary"/><path d="M159.031 271.031C163.719 266.344 169.844 264 176 264S188.281 266.344 192.969 271.031L232 310.062V200C232 186.75 242.75 176 256 176S280 186.75 280 200V310.062L319.031 271.031C328.406 261.656 343.594 261.656 352.969 271.031S362.344 295.594 352.969 304.969L272.969 384.969C263.594 394.344 248.406 394.344 239.031 384.969L159.031 304.969C149.656 295.594 149.656 280.406 159.031 271.031Z" class="fa-primary"/></svg>
